Papirus/64x64/apps/mumble.svg

<?xml version="1.0" encoding="UTF-8" standalone="no"?>
<svg
   id="_图层_1"
   version="1.1"
   viewBox="0 0 64 64" width="64" height="64"
   sodipodi:docname="mumble.svg"
   xml:space="preserve"
   inkscape:version="1.4 (e7c3feb100, 2024-10-09)"
   xmlns:inkscape="http://www.inkscape.org/namespaces/inkscape"
   xmlns:sodipodi="http://sodipodi.sourceforge.net/DTD/sodipodi-0.dtd"
   xmlns="http://www.w3.org/2000/svg"
   xmlns:svg="http://www.w3.org/2000/svg"><sodipodi:namedview
     id="namedview26"
     pagecolor="#505050"
     bordercolor="#eeeeee"
     borderopacity="1"
     inkscape:showpageshadow="0"
     inkscape:pageopacity="0"
     inkscape:pagecheckerboard="0"
     inkscape:deskcolor="#505050"
     inkscape:zoom="10.6875"
     inkscape:cx="32"
     inkscape:cy="32"
     inkscape:window-width="1920"
     inkscape:window-height="939"
     inkscape:window-x="0"
     inkscape:window-y="34"
     inkscape:window-maximized="1"
     inkscape:current-layer="_图层_1" /><!-- Generator: Adobe Illustrator 29.0.1, SVG Export Plug-In . SVG Version: 2.1.0 Build 192)  --><defs
     id="defs6"><style
       id="style1">
      .st0 {
        fill-opacity: .5;
      }

      .st0, .st1, .st2, .st3, .st4, .st5, .st6, .st7 {
        fill: #fff;
      }

      .st8 {
        fill: #133c9a;
      }

      .st2, .st9 {
        display: none;
      }

      .st3 {
        fill-opacity: .2;
      }

      .st4 {
        fill-opacity: .9;
      }

      .st10 {
        fill: #3370ff;
      }

      .st11 {
        fill: url(#_未命名的渐变_3);
      }

      .st12 {
        fill: url(#_未命名的渐变);
      }

      .st5 {
        fill-opacity: .3;
      }

      .st6 {
        fill-opacity: 0;
      }

      .st7 {
        fill-opacity: .7;
      }

      .st13 {
        fill: #00d6b9;
      }

      .st14 {
        fill: url(#_未命名的渐变_2);
      }
    </style><radialGradient
       id="_未命名的渐变"
       data-name="未命名的渐变"
       cx="123.9"
       cy="-40.2"
       fx="123.9"
       fy="-40.2"
       r="59.4"
       gradientTransform="translate(-26.8 25.5) scale(.6 -.7)"
       gradientUnits="userSpaceOnUse"><stop
         offset="0"
         stop-color="#db202e"
         id="stop1" /><stop
         offset="1"
         stop-color="#e01b24"
         id="stop2" /></radialGradient><radialGradient
       id="_未命名的渐变_2"
       data-name="未命名的渐变 2"
       cx="67.6"
       cy="26.8"
       fx="67.6"
       fy="26.8"
       r="105.2"
       gradientTransform="translate(-26.6 25.3) scale(.6 -.7)"
       gradientUnits="userSpaceOnUse"><stop
         offset="0"
         stop-color="#ffb648"
         id="stop3" /><stop
         offset="1"
         stop-color="#ff7800"
         stop-opacity="0"
         id="stop4" /></radialGradient><radialGradient
       id="_未命名的渐变_3"
       data-name="未命名的渐变 3"
       cx="61.7"
       cy="18.6"
       fx="61.7"
       fy="18.6"
       r="68"
       gradientTransform="translate(-26.8 25.8) scale(.6 -.7)"
       gradientUnits="userSpaceOnUse"><stop
         offset="0"
         stop-color="#c64600"
         id="stop5" /><stop
         offset="1"
         stop-color="#a51d2d"
         id="stop6" /></radialGradient></defs><path
     class="st1"
     d="M47.5,64.1H13.8c-7.6,0-13.8-6.3-13.8-13.8V13.7C0,6.2,6.2,0,13.7,0h36.6c7.5,0,13.7,6.2,13.7,13.7v36.6c0,7.5-6.2,13.7-13.7,13.7h-2.9.1Z"
     id="path6"
     style="fill:#ececec;fill-opacity:1" /><g
     id="g35"
     transform="matrix(0.9209518,0,0,0.93022112,2.2020569,2.0485504)"><path
       style="opacity:0.2"
       d="m 26.000007,4.0000725 c 0,0 -3.626247,-0.0414 -7.341784,1.8164077 -3.715542,1.8577629 -7.658197,6.1835768 -7.658197,13.1835738 v 20.999974 h 5.999096 V 19.000054 c 0,-4.999989 2.057338,-6.674167 4.341789,-7.8164 0.594706,-0.297345 1.095747,-0.363465 1.6591,-0.530265 v 10.346662 c 0,4.000001 2.442657,6.825818 4.6582,7.933578 C 29.873751,30.041412 32,30.00004 32,30.00004 c 0,0 2.126249,0.0414 4.341789,-1.066411 2.215543,-1.10776 4.6582,-3.933577 4.6582,-7.933578 V 10.653389 c 0.563353,0.1668 1.063498,0.23292 1.658204,0.530265 2.284451,1.142233 4.341788,2.816411 4.341788,7.8164 v 20.999974 h 5.999993 V 19.000054 c 0,-6.999997 -3.942655,-11.3258109 -7.658197,-13.1835738 C 41.62624,3.9587026 37.999993,4.0000725 37.999993,4.0000725 H 34.999996 V 21.000051 c 0,1.999992 -0.557339,2.174172 -1.341792,2.566405 C 32.873747,23.958676 32,24.000047 32,24.000047 c 0,0 -0.873751,-0.0414 -1.658204,-0.433591 -0.784453,-0.392233 -1.341792,-0.566413 -1.341792,-2.566405 V 4.0000725 Z"
       id="path1" /><path
       style="opacity:0.2"
       d="M 17.000019,32.043005 C 9.1843697,32.573453 3.0000363,39.049803 3.0000363,47.000019 c 0,7.950216 6.1843334,14.426566 13.9999827,14.957013 z m 29.999962,0 v 27.956998 h -7.015615 c 0.629603,-0.836327 1.015623,-1.867902 1.015623,-2.999997 v -1.999997 c 0,-2.769997 -2.229997,-4.999994 -4.999994,-4.999994 h -7.99999 c -2.769997,0 -4.999994,2.229997 -4.999994,4.999994 v 1.999997 C 23.000011,59.770003 25.230008,62 28.000005,62 h 4.999994 2.999996 10.999986 v -0.04296 c 7.815648,-0.530455 13.999983,-7.006805 13.999983,-14.957021 0,-7.950216 -6.184335,-14.426566 -13.999983,-14.957014 z"
       id="path2" /><path
       style="fill:#195bbd"
       d="m 26.000007,3.000075 c 0,0 -3.626247,-0.0414 -7.341784,1.8164077 C 14.942681,6.6742456 11.000026,11.00006 11.000026,18.000056 V 39.00003 h 5.999096 V 18.000056 c 0,-4.999989 2.057338,-6.674167 4.341789,-7.8164 0.594706,-0.2973448 1.095747,-0.3634647 1.6591,-0.5302645 V 20.000054 c 0,4.000001 2.442657,6.825817 4.6582,7.933578 C 29.873751,29.041414 32,29.000043 32,29.000043 c 0,0 2.126249,0.0414 4.341789,-1.066411 2.215543,-1.107761 4.6582,-3.933577 4.6582,-7.933578 V 9.6533915 c 0.563353,0.1667998 1.063498,0.2329197 1.658204,0.5302645 2.284451,1.142233 4.341788,2.816411 4.341788,7.8164 V 39.00003 h 5.999993 V 18.000056 c 0,-6.999996 -3.942655,-11.3258104 -7.658197,-13.1835733 C 41.62624,2.9587051 37.999993,3.000075 37.999993,3.000075 h -2.999997 v 16.999979 c 0,1.999991 -0.557339,2.174171 -1.341792,2.566405 C 32.873747,22.958678 32,23.00005 32,23.00005 c 0,0 -0.873751,-0.0414 -1.658204,-0.433591 -0.784453,-0.392234 -1.341792,-0.566414 -1.341792,-2.566405 V 3.000075 Z"
       id="path3-7" /><path
       style="fill:#229cfe"
       d="M 17.000019,31.043008 C 9.1843697,31.573455 3.0000363,38.049805 3.0000363,46.000021 c 0,7.950216 6.1843334,14.426566 13.9999827,14.957014 z m 29.999962,0 v 27.956997 h -7.015615 c 0.629603,-0.836327 1.015623,-1.867902 1.015623,-2.999996 v -1.999998 c 0,-2.769996 -2.229997,-4.999993 -4.999994,-4.999993 h -7.99999 c -2.769997,0 -4.999994,2.229997 -4.999994,4.999993 v 1.999998 c 0,2.769996 2.229997,4.999994 4.999994,4.999994 h 4.999994 2.999996 10.999986 v -0.04296 c 7.815648,-0.530456 13.999983,-7.006806 13.999983,-14.957022 0,-7.950216 -6.184335,-14.426566 -13.999983,-14.957013 z"
       id="path4" /><path
       style="opacity:0.1;fill:#ffffff"
       d="M 26,3 C 26,3 22.375693,2.9585983 18.660156,4.8164062 14.944615,6.6741691 11,11.000004 11,18 v 1 C 11,12.000004 14.944615,7.6741691 18.660156,5.8164062 22.375693,3.9585983 26,4 26,4 h 3 V 3 Z m 9,0 v 1 h 3 C 38,4 41.624307,3.958629 45.339844,5.8164062 49.055386,7.6741692 53,12.000004 53,19 V 18 C 53,11.000004 49.055386,6.6741691 45.339844,4.8164062 41.624307,2.9586287 38,3 38,3 Z m -6,17 v 1 c 0,1.999991 0.555391,2.174172 1.339844,2.566406 C 31.124297,23.958599 32,24 32,24 32,24 32.875699,23.95863 33.660156,23.566406 34.444609,23.174172 35,22.999991 35,21 v -1 c 0,1.999991 -0.555391,2.174172 -1.339844,2.566406 C 32.875699,22.958625 32,23 32,23 32,23 31.124297,22.958599 30.339844,22.566406 29.555391,22.174172 29,21.999991 29,20 Z"
       id="path5" /><path
       style="opacity:0.2;fill:#ffffff"
       d="M 17,31.042969 C 9.1843507,31.573416 3,38.049784 3,46 3,46.168719 3.019864,46.332651 3.025391,46.5 3.2803002,38.781703 9.3502139,32.562159 17,32.042969 Z m 30,0 v 1 C 54.649785,32.562159 60.7197,38.781703 60.974609,46.5 60.980136,46.332651 61,46.168719 61,46 61,38.049784 54.815648,31.573416 47,31.042969 Z M 28,49 c -2.769997,0 -5,2.230004 -5,5 v 1 c 0,-2.769996 2.230003,-5 5,-5 h 8 c 2.769997,0 5,2.230004 5,5 v -1 c 0,-2.769996 -2.230003,-5 -5,-5 z m 12.556641,10 c -0.158235,0.353974 -0.341707,0.69374 -0.572266,1 H 47 v -1 z"
       id="path6-5" /></g></svg>

<svg xmlns="http://www.w3.org/2000/svg" width="64" height="64" version="1">
 <path style="opacity:0.2" d="m 26.000007,4.0000725 c 0,0 -3.626247,-0.0414 -7.341784,1.8164077 -3.715542,1.8577629 -7.658197,6.1835768 -7.658197,13.1835738 v 20.999974 h 5.999096 V 19.000054 c 0,-4.999989 2.057338,-6.674167 4.341789,-7.8164 0.594706,-0.297345 1.095747,-0.363465 1.6591,-0.530265 v 10.346662 c 0,4.000001 2.442657,6.825818 4.6582,7.933578 C 29.873751,30.041412 32,30.00004 32,30.00004 c 0,0 2.126249,0.0414 4.341789,-1.066411 2.215543,-1.10776 4.6582,-3.933577 4.6582,-7.933578 V 10.653389 c 0.563353,0.1668 1.063498,0.23292 1.658204,0.530265 2.284451,1.142233 4.341788,2.816411 4.341788,7.8164 v 20.999974 h 5.999993 V 19.000054 c 0,-6.999997 -3.942655,-11.3258109 -7.658197,-13.1835738 C 41.62624,3.9587026 37.999993,4.0000725 37.999993,4.0000725 H 34.999996 V 21.000051 c 0,1.999992 -0.557339,2.174172 -1.341792,2.566405 C 32.873747,23.958676 32,24.000047 32,24.000047 c 0,0 -0.873751,-0.0414 -1.658204,-0.433591 -0.784453,-0.392233 -1.341792,-0.566413 -1.341792,-2.566405 V 4.0000725 Z"/>
 <path style="opacity:0.2" d="M 17.000019,32.043005 C 9.1843697,32.573453 3.0000363,39.049803 3.0000363,47.000019 c 0,7.950216 6.1843334,14.426566 13.9999827,14.957013 z m 29.999962,0 v 27.956998 h -7.015615 c 0.629603,-0.836327 1.015623,-1.867902 1.015623,-2.999997 v -1.999997 c 0,-2.769997 -2.229997,-4.999994 -4.999994,-4.999994 h -7.99999 c -2.769997,0 -4.999994,2.229997 -4.999994,4.999994 v 1.999997 C 23.000011,59.770003 25.230008,62 28.000005,62 h 4.999994 2.999996 10.999986 v -0.04296 c 7.815648,-0.530455 13.999983,-7.006805 13.999983,-14.957021 0,-7.950216 -6.184335,-14.426566 -13.999983,-14.957014 z"/>
 <path style="fill:#195bbd" d="m 26.000007,3.000075 c 0,0 -3.626247,-0.0414 -7.341784,1.8164077 C 14.942681,6.6742456 11.000026,11.00006 11.000026,18.000056 V 39.00003 h 5.999096 V 18.000056 c 0,-4.999989 2.057338,-6.674167 4.341789,-7.8164 0.594706,-0.2973448 1.095747,-0.3634647 1.6591,-0.5302645 V 20.000054 c 0,4.000001 2.442657,6.825817 4.6582,7.933578 C 29.873751,29.041414 32,29.000043 32,29.000043 c 0,0 2.126249,0.0414 4.341789,-1.066411 2.215543,-1.107761 4.6582,-3.933577 4.6582,-7.933578 V 9.6533915 c 0.563353,0.1667998 1.063498,0.2329197 1.658204,0.5302645 2.284451,1.142233 4.341788,2.816411 4.341788,7.8164 V 39.00003 h 5.999993 V 18.000056 c 0,-6.999996 -3.942655,-11.3258104 -7.658197,-13.1835733 C 41.62624,2.9587051 37.999993,3.000075 37.999993,3.000075 h -2.999997 v 16.999979 c 0,1.999991 -0.557339,2.174171 -1.341792,2.566405 C 32.873747,22.958678 32,23.00005 32,23.00005 c 0,0 -0.873751,-0.0414 -1.658204,-0.433591 -0.784453,-0.392234 -1.341792,-0.566414 -1.341792,-2.566405 V 3.000075 Z"/>
 <path style="fill:#229cfe" d="M 17.000019,31.043008 C 9.1843697,31.573455 3.0000363,38.049805 3.0000363,46.000021 c 0,7.950216 6.1843334,14.426566 13.9999827,14.957014 z m 29.999962,0 v 27.956997 h -7.015615 c 0.629603,-0.836327 1.015623,-1.867902 1.015623,-2.999996 v -1.999998 c 0,-2.769996 -2.229997,-4.999993 -4.999994,-4.999993 h -7.99999 c -2.769997,0 -4.999994,2.229997 -4.999994,4.999993 v 1.999998 c 0,2.769996 2.229997,4.999994 4.999994,4.999994 h 4.999994 2.999996 10.999986 v -0.04296 c 7.815648,-0.530456 13.999983,-7.006806 13.999983,-14.957022 0,-7.950216 -6.184335,-14.426566 -13.999983,-14.957013 z"/>
 <path style="opacity:0.1;fill:#ffffff" d="M 26 3 C 26 3 22.375693 2.9585983 18.660156 4.8164062 C 14.944615 6.6741691 11 11.000004 11 18 L 11 19 C 11 12.000004 14.944615 7.6741691 18.660156 5.8164062 C 22.375693 3.9585983 26 4 26 4 L 29 4 L 29 3 L 26 3 z M 35 3 L 35 4 L 38 4 C 38 4 41.624307 3.9586287 45.339844 5.8164062 C 49.055386 7.6741692 53 12.000004 53 19 L 53 18 C 53 11.000004 49.055386 6.6741691 45.339844 4.8164062 C 41.624307 2.9586287 38 3 38 3 L 35 3 z M 29 20 L 29 21 C 29 22.999991 29.555391 23.174172 30.339844 23.566406 C 31.124297 23.958599 32 24 32 24 C 32 24 32.875699 23.958625 33.660156 23.566406 C 34.444609 23.174172 35 22.999991 35 21 L 35 20 C 35 21.999991 34.444609 22.174172 33.660156 22.566406 C 32.875699 22.958625 32 23 32 23 C 32 23 31.124297 22.958599 30.339844 22.566406 C 29.555391 22.174172 29 21.999991 29 20 z"/>
 <path style="opacity:0.2;fill:#ffffff" d="M 17 31.042969 C 9.1843507 31.573416 3 38.049784 3 46 C 3 46.168719 3.0198637 46.332651 3.0253906 46.5 C 3.2803002 38.781703 9.3502139 32.562159 17 32.042969 L 17 31.042969 z M 47 31.042969 L 47 32.042969 C 54.649785 32.562159 60.7197 38.781703 60.974609 46.5 C 60.980136 46.332651 61 46.168719 61 46 C 61 38.049784 54.815648 31.573416 47 31.042969 z M 28 49 C 25.230003 49 23 51.230004 23 54 L 23 55 C 23 52.230004 25.230003 50 28 50 L 36 50 C 38.769997 50 41 52.230004 41 55 L 41 54 C 41 51.230004 38.769997 49 36 49 L 28 49 z M 40.556641 59 C 40.398406 59.353974 40.214934 59.69374 39.984375 60 L 47 60 L 47 59 L 40.556641 59 z"/>
</svg>
